public/purrify-logo.svg

<svg fill="none" height="200" viewBox="0 0 200 200" width="200" xmlns="http://www.w3.org/2000/svg"><circle cx="100" cy="100" fill="#ff3131" fill-opacity=".9" r="90"/><path d="m60 70c0-5.5228 4.4772-10 10-10h60c5.523 0 10 4.4772 10 10v60c0 5.523-4.477 10-10 10h-60c-5.5228 0-10-4.477-10-10z" fill="#fff"/><path d="m80 85c0-2.7614 2.2386-5 5-5h30c2.761 0 5 2.2386 5 5v30c0 2.761-2.239 5-5 5h-30c-2.7614 0-5-2.239-5-5z" fill="#ff3131"/><path d="m50 100c0-27.6142 22.3858-50 50-50 27.614 0 50 22.3858 50 50 0 27.614-22.386 50-50 50-27.6142 0-50-22.386-50-50z" stroke="#fff" stroke-width="6"/><path d="m65 100c0-19.33 15.67-35 35-35 19.33 0 35 15.67 35 35 0 19.33-15.67 35-35 35-19.33 0-35-15.67-35-35z" stroke="#ff3131" stroke-width="4"/></svg>

<svg width="200" height="200" viewBox="0 0 200 200" fill="none" xmlns="http://www.w3.org/2000/svg">
  <circle cx="100" cy="100" r="90" fill="#FF3131" fill-opacity="0.9"/>
  <path d="M60 70C60 64.4772 64.4772 60 70 60H130C135.523 60 140 64.4772 140 70V130C140 135.523 135.523 140 130 140H70C64.4772 140 60 135.523 60 130V70Z" fill="white"/>
  <path d="M80 85C80 82.2386 82.2386 80 85 80H115C117.761 80 120 82.2386 120 85V115C120 117.761 117.761 120 115 120H85C82.2386 120 80 117.761 80 115V85Z" fill="#FF3131"/>
  <path d="M50 100C50 72.3858 72.3858 50 100 50V50C127.614 50 150 72.3858 150 100V100C150 127.614 127.614 150 100 150V150C72.3858 150 50 127.614 50 100V100Z" stroke="white" stroke-width="6"/>
  <path d="M65 100C65 80.67 80.67 65 100 65V65C119.33 65 135 80.67 135 100V100C135 119.33 119.33 135 100 135V135C80.67 135 65 119.33 65 100V100Z" stroke="#FF3131" stroke-width="4"/>
</svg>
